!!!!SEGMENT: pl-cz-iii-257_gotschalk-requiem-B-07-pie-Jesu.krn
!!!id: 18xx:107
!!!COM: Gotschalk, Filip
!!!OTL: Requiem in B - Pie Jesu
!!!PDT:
!!!SMS-siglum: PL-CZ
!!!SMS-shelfmark: III-257
!!!NIFC-rismID:
!!!URL-scan: http://repozytorium.nifc.pl/skany/pl-cz-nut--iii-257
!!!ONB-nifc:
!!!ENC: Anna Matuszewska
!!!END: 2020-03-27
**kern	**fb	**kern	**kern	**kern	**text	**kern	**text	**kern	**text	**kern	**text	**kern	**kern	**kern	**kern	**dynam
*part11	*	*part10	*part9	*part8	*part8	*part7	*part7	*part6	*part6	*part5	*part5	*part4	*part3	*part2	*part1	*part1
*staff11	*	*staff10	*staff9	*staff8	*staff8	*staff7	*staff7	*staff6	*staff6	*staff5	*staff5	*staff4	*staff3	*staff2	*staff1	*
*I"Organo	*	*I"Violino Secondo	*I"Violino Primo	*I"Basso	*	*I"Tenore	*	*I"Alto	*	*I"Canto	*	*I"Cornu Secondo in B	*I"Cornu Primo in B	*I"Clarinetto Secondo	*I"Clarinetto Primo	*
*I'Org	*	*I'Vn II	*I'Vn I	*I'B	*	*I'T	*	*I'A	*	*I'C	*	*I'Cor II	*I'Cor I	*I'Cl II	*I'Cl I	*
*clefF4	*	*clefG2	*clefG2	*clefF4	*	*clefC4	*	*clefC3	*	*clefC1	*	*clefG2	*clefG2	*clefG2	*clefG2	*
*	*	*	*	*	*	*	*	*	*	*	*	*ITrd1c2	*ITrd1c2	*	*	*
*k[b-e-]	*	*k[b-e-]	*k[b-e-]	*k[b-e-]	*	*k[b-e-]	*	*k[b-e-]	*	*k[b-e-]	*	*k[b-e-]	*k[b-e-]	*k[b-e-]	*k[b-e-a-]	*
*M3/4	*	*M3/4	*M3/4	*M3/4	*	*M3/4	*	*M3/4	*	*M3/4	*	*M3/4	*M3/4	*M3/4	*M3/4	*
=1	=1	=1	=1	=1	=1	=1	=1	=1	=1	=1	=1	=1	=1	=1	=1	=1
!	!	!	!	!	!	!LO:TX:a:t=problem:laseczki w dół z prawej/lewej strony	!	!	!	!LO:TX:a:t=problem:laseczki w dół z prawej/lewej strony	!	!	!	!	!LO:TX:a:t=problem:trzy bemole przy kluczu; w innych partiach dwa	!
!	!	!LO:TX:a:t=TACET	!LO:TX:a:t=TACET	!LO:TX:a:t=problem:bemole przy klucze odwrotnie	!	!LO:TX:a:t=problem:bemol E- przy kluczu oktawę niżej	!	!LO:TX:a:t=problem:laseczki w dół z prawej/lewej strony	!	!LO:TX:a:t=problem:bemol ee- przy kluczu oktawę wyżej	!	!LO:TX:a:t=TACET	!LO:TX:a:t=TACET	!LO:TX:a:t=problem:brak oznaczenia tempa	!LO:TX:a:B:t=Adagio	!
*2\right	*	*	*	*2\right	*	*2\right	*	*2\right	*	*2\right	*	*	*	*	*	*
2C	.	2.r	2.r	2C	Pi-	2e-	Pi-	2g	Pi-	(>4g	Pi-	2.r	2.r	4r	4g	p
!	!	!	!	!	!	!	!	!	!	!	!	!	!	!	!LO:TX:a:t=problem:laseczki w dół z prawej/lewej strony	!
.	.	.	.	.	.	.	.	.	.	4cc)	.	.	.	4e-	(>4cc	.
!	!	!	!	!LO:TX:a:t=problem:laseczki w dół z prawej/lewej strony	!	!	!	!	!	!	!	!	!	!	!	!
4E-	6	.	.	4c	-e	4c	-e	4g	-e	4ee-	-e	.	.	4g	4ee-)	.
=2	=2	=2	=2	=2	=2	=2	=2	=2	=2	=2	=2	=2	=2	=2	=2	=2
!LO:TX:a:t=problem:laseczki w dół z prawej/lewej strony	!	!	!	!	!	!	!	!	!	!	!	!	!	!	!	!
.	.	.	.	.	.	.	.	.	.	8qqee-/	.	.	.	.	8qqee-/	.
2F	4| 2	2.r	2.r	2F	Je-	2Bn	Je-	2g	Je-	(>4dd	Je-	2.r	2.r	2g	4dd	.
.	.	.	.	.	.	.	.	.	.	8ccL	.	.	.	.	8ccL	.
.	.	.	.	.	.	.	.	.	.	8bnJ)	.	.	.	.	8bnJ	.
4E-	6	.	.	4E-	-su	4c	-su	4g	-su	4cc	-su	.	.	4g	4cc	.
=3	=3	=3	=3	=3	=3	=3	=3	=3	=3	=3	=3	=3	=3	=3	=3	=3
!	!	!	!	!	!	!	!	!	!	!	!	!	!	!LO:TX:a:t=problem:laseczki półnut z lewej strony	!	!
*	*	*	*	*	*	*	*	*	*	*	*	*	*	*2\right	*2\right	*
4G	7_ n	2.r	2.r	(>4G	Do-	2d	Do-	2bn	Do-	2ff	Do-	2.r	2.r	(>2dd	2ff	.
4Bn	x	.	.	4Bn)	.	.	.	.	.	.	.	.	.	.	.	.
4c	.	.	.	4c	-mi-	4c	-mi-	4g	-mi-	16ffLL	.	.	.	4cc)	(>16ffLL	.
.	.	.	.	.	.	.	.	.	.	16ee-	.	.	.	.	16ee-	.
.	.	.	.	.	.	.	.	.	.	16dd	-mi-	.	.	.	16dd	.
.	.	.	.	.	.	.	.	.	.	16ee-JJ	.	.	.	.	16ee-JJ)	.
=4	=4	=4	=4	=4	=4	=4	=4	=4	=4	=4	=4	=4	=4	=4	=4	=4
.	.	.	.	.	.	8qqc/	.	.	.	8qqee-/	.	.	.	.	.	.
4G	n_	2.r	2.r	2.G	-ne	2.Bn	-ne	2.g	-ne	2.dd	-ne	2.r	2.r	2bn	2dd	.
!LO:TX:a:t=problem:niejednoznaczny zapis artykulacji w t. 4	!	!	!	!	!	!	!	!	!	!	!	!	!	!	!	!
8GL	X	.	.	.	.	.	.	.	.	.	.	.	.	.	.	.
8F`	.	.	.	.	.	.	.	.	.	.	.	.	.	.	.	.
8E-`	.	.	.	.	.	.	.	.	.	.	.	.	.	4r	4r	.
8D`J	.	.	.	.	.	.	.	.	.	.	.	.	.	.	.	.
!	!	!	!	!	!	!	!	!	!	!LO:LB:g=original	!	!	!	!	!	!
=5	=5	=5	=5	=5	=5	=5	=5	=5	=5	=5	=5	=5	=5	=5	=5	=5
!	!	!	!	!	!	!	!	!LO:N:vis=2.	!	!	!	!	!	!	!	!
4E-	6	2.r	2.r	(<4E-/	Do-	2c	Do-	2g	Do-	(>4cc	Do-	2.r	2.r	4r	4r	.
4C\	.	.	.	4C)	.	.	.	.	.	4ee-)	.	.	.	4cc	(>4ee-	.
4E-	.	.	.	4E-/	-na	4e-	-na	4g	-na	4gg	-na	.	.	4ee-	4gg)	.
!LO:LB:g=original	!	!	!	!LO:LB:g=original	!	!	!	!LO:LB:g=original	!	!	!	!	!	!	!	!
=6	=6	=6	=6	=6	=6	=6	=6	=6	=6	=6	=6	=6	=6	=6	=6	=6
.	.	.	.	.	.	.	.	.	.	8qqgg/	.	.	.	.	.	.
!	!	!	!	!	!	!	!	!LO:N:vis=2.	!	!	!	!	!	!	!	!
4D/	6|_ 4_	2.r	2.r	(>4Gn	e-	2d	e-	2bn	e-	2ff	e-	2.r	2.r	2dd	(>2ff	.
4GG	x	.	.	4Bn)	.	.	.	.	.	.	.	.	.	.	.	.
4C	.	.	.	4c	-is	4c	-is	4g	-is	4ee-	-is	.	.	4cc	4ee-)	.
!	!	!	!	!	!	!LO:LB:g=original	!	!	!	!	!	!	!	!	!LO:LB:g=original	!
=7	=7	=7	=7	=7	=7	=7	=7	=7	=7	=7	=7	=7	=7	=7	=7	=7
!	!	!	!	!	!	!	!	!	!	!	!	!	!	!LO:TX:a:t=SIC:s=4a-	!	!
.	.	.	.	.	.	.	.	.	.	.	.	.	.	.	8qqee-/	.
4F	6| 3-	2.r	2.r	(>4F	re-	(<4A-X/	re-	(>4f	Re-	(>4dd	re-	2.r	2.r	4a	4dd	.
4G	4 6	.	.	4G)	.	4G)	.	4e-)	.	4cc)	.	.	.	4e-	4cc	.
4GG	3n 5	.	.	4G	-qui-	4G	-qui-	4d	-qui-	4bn	-qui-	.	.	4g	4bn	.
=8	=8	=8	=8	=8	=8	=8	=8	=8	=8	=8	=8	=8	=8	=8	=8	=8
!	!	!	!	!	!	!	!	!	!	!LO:TX:a:t=problem:1 ćwierćnuta	!	!	!	!	!	!
4C\	6|	2.r	2.r	2.C	-em	2.G	-em	2.e-	-em.	2.cc	-em	2.r	2.r	2e-	2cc	.
!LO:TX:a:t=problem:niejednoznaczny zapis artykulacji w t. 8	!	!	!	!	!	!	!	!	!	!	!	!	!	!	!	!
8G`L	.	.	.	.	.	.	.	.	.	.	.	.	.	.	.	.
8F`	.	.	.	.	.	.	.	.	.	.	.	.	.	.	.	.
8E-`	.	.	.	.	.	.	.	.	.	.	.	.	.	4r	4r	.
8D`J	.	.	.	.	.	.	.	.	.	.	.	.	.	.	.	.
!	!	!	!	!	!	!	!	!	!	!	!	!	!	!LO:LB:g=original	!	!
=9	=9	=9	=9	=9	=9	=9	=9	=9	=9	=9	=9	=9	=9	=9	=9	=9
!	!	!	!	!LO:TX:a:t=problem:powtórzenie od początku trzy razy	!	!LO:TX:a:t=problem:powtórzenie od początku trzy razy	!	!LO:TX:a:t=problem:powtórzenie od początku trzy razy	!	!LO:TX:a:t=problem:powtórzenie od początku trzy razy	!	!	!	!	!	!
!	!	!	!	!LO:TX:a:t=Repetitur: ter.	!	!LO:TX:a:t=Repetitur ter.	!	!LO:TX:a:t=Repetitur ter.	!	!LO:TX:a:t=Repetitur ter.	!	!	!	!	!	!
2C	.	2.r	2.r	2C	Pi-	2e-	Pi-	2g	Pi-	(>4g	Pi-	2.r	2.r	4r	4r	.
.	.	.	.	.	.	.	.	.	.	4cc)	.	.	.	4e-	4cc	.
4E-	6	.	.	4c	-e	4c	-e	4g	-e	4ee-	-e	.	.	4g	4ee-	.
=10	=10	=10	=10	=10	=10	=10	=10	=10	=10	=10	=10	=10	=10	=10	=10	=10
.	.	.	.	.	.	.	.	.	.	8qqee-/	.	.	.	.	8qqee-/	.
2F	4| 2	2.r	2.r	2F	Je-	2Bn	Je-	2g	Je-	(>4dd	Je-	2.r	2.r	2g	4dd	.
.	.	.	.	.	.	.	.	.	.	8ccL	.	.	.	.	8ccL	.
.	.	.	.	.	.	.	.	.	.	8bnJ)	.	.	.	.	8bnJ	.
4E-	6	.	.	4E-	-su	4c	-su	4g	-su	4cc	-su	.	.	4g	4cc	.
=11	=11	=11	=11	=11	=11	=11	=11	=11	=11	=11	=11	=11	=11	=11	=11	=11
4G	7_ n	2.r	2.r	(>4G	Do-	2d	Do-	2bn	Do-	2ff	Do-	2.r	2.r	4r	4r	.
!	!	!	!	!	!	!	!	!	!	!	!	!	!	!	!LO:TX:a:t=problem:niejednoznaczny zapis łuku	!
4Bn	x	.	.	4Bn)	.	.	.	.	.	.	.	.	.	(>4dd	(>4ff	.
4c	.	.	.	4c	-mi-	4c	-mi-	4g	-mi-	16ffLL	.	.	.	4cc)	16ffLL	.
.	.	.	.	.	.	.	.	.	.	16ee-	.	.	.	.	16ee-	.
.	.	.	.	.	.	.	.	.	.	16dd	-mi-	.	.	.	16dd	.
.	.	.	.	.	.	.	.	.	.	16ee-JJ	.	.	.	.	16ee-JJ)	.
!LO:LB:g=original	!	!	!	!	!	!	!	!	!	!	!	!	!	!	!	!
=12	=12	=12	=12	=12	=12	=12	=12	=12	=12	=12	=12	=12	=12	=12	=12	=12
.	.	.	.	.	.	8qqc/	.	.	.	8qqee-/	.	.	.	.	.	.
4G	n_	2.r	2.r	2.G	-ne	2.Bn	-ne	2.g	-ne	2.dd	-ne	2.r	2.r	2bn	2dd	.
!LO:TX:a:t=problem:niejednoznaczny zapis artykulacji w t. 12	!	!	!	!	!	!	!	!	!	!	!	!	!	!	!	!
8GL	x	.	.	.	.	.	.	.	.	.	.	.	.	.	.	.
8F`	.	.	.	.	.	.	.	.	.	.	.	.	.	.	.	.
8E-`	.	.	.	.	.	.	.	.	.	.	.	.	.	4r	4r	.
8D`J	.	.	.	.	.	.	.	.	.	.	.	.	.	.	.	.
!	!	!	!	!	!	!	!	!	!	!LO:LB:g=original	!	!	!	!	!	!
=13	=13	=13	=13	=13	=13	=13	=13	=13	=13	=13	=13	=13	=13	=13	=13	=13
!	!	!	!	!	!	!	!	!LO:N:vis=2.	!	!	!	!	!	!	!	!
4E-	6	2.r	2.r	(<4E-/	Do-	2c	Do-	2g	Do-	(>4cc	Do-	2.r	2.r	4r	4r	.
4C\	.	.	.	4C)	.	.	.	.	.	4ee-)	.	.	.	(>4cc	(>4ee-	.
4E-	.	.	.	4E-/	-na	4e-	-na	4g	-na	4gg	-na	.	.	4ee-)	4gg)	.
!	!	!	!	!LO:LB:g=original	!	!	!	!LO:LB:g=original	!	!	!	!	!	!	!	!
=14	=14	=14	=14	=14	=14	=14	=14	=14	=14	=14	=14	=14	=14	=14	=14	=14
.	.	.	.	.	.	.	.	.	.	8qqgg/	.	.	.	.	.	.
!	!	!	!	!	!	!	!	!LO:N:vis=2.	!	!	!	!	!	!	!	!
4D/	6|_ 4_	2.r	2.r	(>4Gn	e-	2d	e-	2bn	e-	2ff	e-	2.r	2.r	2dd	(>2ff	.
4GG	x	.	.	4Bn)	.	.	.	.	.	.	.	.	.	.	.	.
4C	.	.	.	4c	-is	4c	-is	4g	-is	4ee-	-is	.	.	4cc	4ee-)	.
!	!	!	!	!	!	!LO:LB:g=original	!	!	!	!	!	!	!	!	!LO:LB:g=original	!
=15	=15	=15	=15	=15	=15	=15	=15	=15	=15	=15	=15	=15	=15	=15	=15	=15
4F	6 3-	2.r	2.r	(>4F	re-	(<4A-X/	re-	(>4f	Re-	(>4dd	re-	2.r	2.r	4r	4r	.
4G	4 6	.	.	4G)	.	4G)	.	4e-)	.	4cc)	.	.	.	4e-	4cc	.
4GG	3n 5	.	.	4G	-qui-	4G	-qui-	4d	-qui-	4bn	-qui-	.	.	4d	4bn	.
=16	=16	=16	=16	=16	=16	=16	=16	=16	=16	=16	=16	=16	=16	=16	=16	=16
!	!	!	!	!	!	!	!	!	!	!LO:TX:a:t=problem:1 ćwierćnuta	!	!	!	!	!	!
4C\	.	2.r	2.r	2.C	-em	2.G	-em	2.e-	-em.	2.cc	-em	2.r	2.r	2e-	2cc	.
!LO:TX:a:t=problem:niejednoznaczny zapis artykulacji w t. 16	!	!	!	!	!	!	!	!	!	!	!	!	!	!	!	!
8G`L	.	.	.	.	.	.	.	.	.	.	.	.	.	.	.	.
8F`	.	.	.	.	.	.	.	.	.	.	.	.	.	.	.	.
8E-`	.	.	.	.	.	.	.	.	.	.	.	.	.	4r	4r	.
8D`J	.	.	.	.	.	.	.	.	.	.	.	.	.	.	.	.
=17	=17	=17	=17	=17	=17	=17	=17	=17	=17	=17	=17	=17	=17	=17	=17	=17
!	!	!	!	!LO:TX:a:t=problem:powtórzenie od początku trzy razy	!	!LO:TX:a:t=problem:powtórzenie od początku trzy razy	!	!LO:TX:a:t=problem:powtórzenie od początku trzy razy	!	!LO:TX:a:t=problem:powtórzenie od początku trzy razy	!	!	!	!	!	!
!	!	!	!	!LO:TX:a:t=Repetitur: ter.	!	!LO:TX:a:t=Repetitur ter.	!	!LO:TX:a:t=Repetitur ter.	!	!LO:TX:a:t=Repetitur ter.	!	!	!	!	!	!
2C	.	2.r	2.r	2C	Pi-	2e-	Pi-	2g	Pi-	(>4g	Pi-	2.r	2.r	4r	4r	.
.	.	.	.	.	.	.	.	.	.	4cc)	.	.	.	4e-	4cc	.
4E-	6	.	.	4c	-e	4c	-e	4g	-e	4ee-	-e	.	.	4g	4ee-	.
!LO:LB:g=original	!	!	!	!	!	!	!	!	!	!	!	!	!	!LO:LB:g=original	!	!
=18	=18	=18	=18	=18	=18	=18	=18	=18	=18	=18	=18	=18	=18	=18	=18	=18
.	.	.	.	.	.	.	.	.	.	8qqee-/	.	.	.	.	8qqee-/	.
2F	4| 2	2.r	2.r	2F	Je-	2Bn	Je-	2g	Je-	(>4dd	Je-	2.r	2.r	2g	4dd	.
.	.	.	.	.	.	.	.	.	.	8ccL	.	.	.	.	8ccL	.
.	.	.	.	.	.	.	.	.	.	8bnJ)	.	.	.	.	8bnJ	.
4E-	6	.	.	4E-	-su	4c	-su	4g	-su	4cc	-su	.	.	4g	4cc	.
=19	=19	=19	=19	=19	=19	=19	=19	=19	=19	=19	=19	=19	=19	=19	=19	=19
4G	7_ n	2.r	2.r	(>4G	Do-	2d	Do-	2bn	Do-	2ff	Do-	2.r	2.r	4r	4r	.
4Bn	x	.	.	4Bn)	.	.	.	.	.	.	.	.	.	4dd	(>4ff	.
4c	.	.	.	4c	-mi-	4c	-mi-	4g	-mi-	16ffLL	.	.	.	4cc	16ffLL	.
.	.	.	.	.	.	.	.	.	.	16ee-	.	.	.	.	16ee-	.
.	.	.	.	.	.	.	.	.	.	16dd	-mi-	.	.	.	16dd	.
.	.	.	.	.	.	.	.	.	.	16ee-JJ	.	.	.	.	16ee-JJ)	.
=20	=20	=20	=20	=20	=20	=20	=20	=20	=20	=20	=20	=20	=20	=20	=20	=20
!LO:TX:a:t=problem:niejednoznaczny zapis artykulacji w t. 20	!	!	!	!	!	!	!	!	!	!	!	!	!	!	!	!
.	.	.	.	.	.	8qqc/	.	.	.	8qqee-/	.	.	.	.	.	.
4G	n_	2.r	2.r	2.G	-ne	2.Bn	-ne	2.g	-ne	2.dd	-ne	2.r	2.r	2bn	2dd	.
8GL	.	.	.	.	.	.	.	.	.	.	.	.	.	.	.	.
8F	.	.	.	.	.	.	.	.	.	.	.	.	.	.	.	.
8E-	.	.	.	.	.	.	.	.	.	.	.	.	.	4r	4r	.
8DJ	x	.	.	.	.	.	.	.	.	.	.	.	.	.	.	.
!	!	!	!	!	!	!	!	!	!	!LO:LB:g=original	!	!	!	!	!	!
=21	=21	=21	=21	=21	=21	=21	=21	=21	=21	=21	=21	=21	=21	=21	=21	=21
!	!	!	!	!	!	!	!	!LO:N:vis=2.	!	!	!	!	!	!	!	!
4E-	6	2.r	2.r	(<4E-/	Do-	2c	Do-	2g	Do-	(>4cc	Do-	2.r	2.r	4r	4r	.
4C\	.	.	.	4C)	.	.	.	.	.	4ee-)	.	.	.	4cc	4ee-	.
4E-	.	.	.	4E-/	-na	4e-	-na	4g	-na	4gg	-na	.	.	4ee-	4gg	.
!	!	!	!	!LO:LB:g=original	!	!	!	!LO:LB:g=original	!	!	!	!	!	!	!	!
=22	=22	=22	=22	=22	=22	=22	=22	=22	=22	=22	=22	=22	=22	=22	=22	=22
.	.	.	.	.	.	.	.	.	.	8qqgg/	.	.	.	.	.	.
!	!	!	!	!	!	!	!	!LO:N:vis=2.	!	!	!	!	!	!	!	!
4D/	6_ 4_	2.r	2.r	(>4Gn	e-	2d	e-	2bn	e-	2ff	e-	2.r	2.r	2dd	2ff	.
4GG	x	.	.	4Bn)	.	.	.	.	.	.	.	.	.	.	.	.
4C	.	.	.	4c	-is	4c	-is	4g	-is	4ee-	-is	.	.	4cc	4ee-	.
!	!	!	!	!	!	!LO:LB:g=original	!	!	!	!	!	!	!	!	!	!
=23	=23	=23	=23	=23	=23	=23	=23	=23	=23	=23	=23	=23	=23	=23	=23	=23
4F	6 3-	2.r	2.r	(>4F	re-	(<4A-X/	re-	(>4f	Re-	(>4dd	re-	2.r	2.r	4r	4r	.
4G	4 6	.	.	4G)	.	4G)	.	4e-)	.	4cc)	.	.	.	4ee-	4ccc	.
4GG	3n 5	.	.	4G	-qui-	4G	-qui-	4d	-qui-	4bn	-qui-	.	.	4dd	4bbn	.
!	!	!	!	!	!	!	!	!	!	!	!	!	!	!	!LO:LB:g=original	!
=24	=24	=24	=24	=24	=24	=24	=24	=24	=24	=24	=24	=24	=24	=24	=24	=24
!	!	!	!	!	!	!	!	!	!	!LO:TX:a:t=problem:1 ćwierćnuta	!	!	!	!	!	!
4C	.	2.r	2.r	2.C	-em	2.G	-em	2.e-	-em.	2.cc	-em	2.r	2.r	4ee-	2ccc	.
8G'L	.	.	.	.	.	.	.	.	.	.	.	.	.	8ggL	.	.
8F'	.	.	.	.	.	.	.	.	.	.	.	.	.	8ee-J	.	.
8E-'	.	.	.	.	.	.	.	.	.	.	.	.	.	4cc	4r	.
8D'J	.	.	.	.	.	.	.	.	.	.	.	.	.	.	.	.
!LO:LB:g=original	!	!	!	!	!	!	!	!	!	!	!	!	!	!	!	!
=25	=25	=25	=25	=25	=25	=25	=25	=25	=25	=25	=25	=25	=25	=25	=25	=25
4r	6-_ 4_	2.r	2.r	2c	Sem-	2c	Sem-	2f	Sem-	2a-X	Sem-	2.r	2.r	2ff	2aa-X	.
4C	x	.	.	.	.	.	.	.	.	.	.	.	.	.	.	.
4C	.	.	.	4c	-pi-	4c	-pi-	4f	-pi-	4a-	-pi-	.	.	4ff	4aa-	.
=26	=26	=26	=26	=26	=26	=26	=26	=26	=26	=26	=26	=26	=26	=26	=26	=26
!	!	!	!	!	!	!	!	!	!	!	!	!	!	!LO:TX:a:t=SIC:s=2ee	!	!
4r	.	2.r	2.r	2c	-ter-	2c	-ter-	2en	-ter-	2g	-ter-	2.r	2.r	2ee-	2gg	.
4C	5_ 3n_	.	.	.	.	.	.	.	.	.	.	.	.	.	.	.
!	!	!	!	!	!	!	!	!	!	!	!	!	!	!LO:TX:a:t=SIC:s=4ee	!	!
4C	x	.	.	4c	-nam	4c	-nam	4e	-nam	4g	-nam	.	.	4ee-	4gg	.
=27	=27	=27	=27	=27	=27	=27	=27	=27	=27	=27	=27	=27	=27	=27	=27	=27
!	!	!	!	!	!	!	!	!	!	!LO:TX:a:t=SIC:s=2.a-	!	!	!	!	!	!
4r	6-_ 4_	2.r	2.r	2.c	a-	2.c	A-	2.f	A-	2.a	A-	2.r	2.r	2.ff	2.aa-	.
4C	x	.	.	.	.	.	.	.	.	.	.	.	.	.	.	.
4C	.	.	.	.	.	.	.	.	.	.	.	.	.	.	.	.
=28	=28	=28	=28	=28	=28	=28	=28	=28	=28	=28	=28	=28	=28	=28	=28	=28
2.C	.	2.r	2.r	2.c	-men.	2.c	-men.	2.en	-men.	2.g	-men	2.r	2.r	2.een	2.gg	.
==	==	==	==	==	==	==	==	==	==	==	==	==	==	==	==	==
*-	*-	*-	*-	*-	*-	*-	*-	*-	*-	*-	*-	*-	*-	*-	*-	*-
!!!system-decoration: [(s1,s2)][(s3,s4)][(s5,s6,s7,s8)][(s9,s10)][(s11)]
!!!RDF**kern: > = above
!!!RDF**kern: < = below
